!!!COM:	Busnoys, Antoine
!!!CDT:	~1430///-1492/11/06
!!!OTL:	Ma plus qu'assez
!!!AGN:	Song; Chanson
!!!SCT:	Bus3040
!!!SCA:	Bus3040
!!!voices:	3
**kern	**kern	**kern
*staff3	*staff2	*staff1
*Ivox	*Ivox	*Ivox
*I"Contratenor	*I"Tenor	*I"Superius
*I'Ct	*I'T	*I'S
*>[A,B,B1,B,B2]	*>[A,B,B1,B,B2]	*>[A,B,B1,B,B2]
*>A	*>A	*>A
*clefF4	*clefGv2	*clefGv2
*k[b-]	*k[b-]	*k[b-]
*M3/1	*M3/1	*M3/1
*met(O)	*met(O)	*met(O)
=1-	=1-	=1-
!!LO:TX:Z=12:t=Virelai
0FF	0F	0c
1C	1E	1c
=2	=2	=2
1BB-	1F	1d
1GG	1.G	1.e
1C	.	.
.	2F	2d
=3	=3	=3
1D	1F	1f
2r	2c	2e
2E	1c	2c
2F	.	1d
2G	2B-	.
=4	=4	=4
2A	2c	1c
2F	2A	.
2G	2G	2B-
2C	1A	2c
1D	.	1A
.	2F	.
=5	=5	=5
1.E	1E	1.G
.	1r	.
2C	.	2.c
1C	1e	.
.	.	8B-L
.	.	8AJ
.	.	2G
=6	=6	=6
1r	2f	2A
.	2.g	2.B-
1r	.	.
.	4f	4A
.	4e	4G
.	4d	4F
1C	1e	1G
=7	=7	=7
1.D	0f	0.F
2.BB-	.	.
.	1r	.
4C	.	.
2D	.	.
=8	=8	=8
2AA	1a	0.r
1C	.	.
.	1a	.
2D	.	.
1E	1g	.
=9	=9	=9
2F	2f	1A
2.D	2.f	.
.	.	1A
4C	4e	.
2AA	2c	.
2BB-	2d	1G
2C	4c	.
.	4B-	.
=10	=10	=10
2D	1.A	2F
2.F	.	1c
4E	.	.
2D	2F	2d
1C	1G	1e
=11	=11	=11
2r	1F	1.f
1D	.	.
.	2r	.
1F	2F	1a
.	2A	.
4E	2B-	4g
4D	.	4f
=12	=12	=12
2C	2c	2e
2BB-	1d	1d
1GG	.	.
.	2B-	1g
1D	1A	.
.	.	2f#i
=13	=13	=13
2GG	0G	1g
2.C	.	.
.	.	1r
4D	.	.
2.E	.	.
.	1r	1e
4F	.	.
2G	.	.
=14	=14	=14
0C	0c	0e
1r	1B-	1d
=15	=15	=15
1r	1c	1e
0BB-	0d	1.f
.	.	4e
.	.	4d
=16	=16	=16
1C	1c	1e
1D	2A	1f
.	1B-	.
1E	.	1g
.	2G	.
=17	=17	=17
2D	2F	1a
2F	2A	.
2E	2B-	2g
2C	1c	2e
1GG	.	1d
.	2Bni	.
=18	=18	=18
2r	1.c	2.c
1C	.	.
.	.	4d
.	.	2e
2D	2A	1f
2BB-	1G	.
2C	.	2e
=19	=19	=19
2AA	1F	0.f
2.D	.	.
.	1r	.
4C	.	.
2BB-	.	.
1AA	1F	.
=20	=20	=20
2GG	1G	1r
1BB-	.	.
.	2F	1r
2C	2.A	.
1D	.	1f
.	4G	.
.	2F	.
=21	=21	=21
1E	1E	1g
1F	1r	2f
.	.	2.a
1D	1F	.
.	.	4g
.	.	2f
=22	=22	=22
2C	2G	2e
2D	2F	2.f
1BB-	1D	.
.	.	4g
.	.	4f
.	.	8eL
.	.	8dJ
1AA	1E	2.c#i
.	.	4Bni
=23	=23	=23
1BB-	1D	2d
.	.	2B-
2r	2E	2c
1BB-	2D	1d
.	1G	.
2FF	.	4c
.	.	4B-
=24	=24	=24
2.D	2.F	2.A
4C	4G	4B-
2AA	2A	2c
2GG	2.B-	2.d
1D	.	.
.	4c	4e
.	2d	2f
=25	=25	=25
2E	2B-	2g
2C	2.c	1a
1F	.	.
.	4F	.
.	2A	1f
1C	1G	.
.	.	2e
=26	=26	=26
0.FFl	0.Fl	0.fl
!!LO:LB:i:g=z
=27||!|:	=27||!|:	=27||!|:
*>B	*>B	*>B
*clefF4	*clefGv2	*clefGv2
*k[b-]	*k[b-]	*k[b-]
*M2/1	*M2/1	*M2/1
*met(C|)	*met(C|)	*met(C|)
!!section: Le renom
!!!OMD: Le renom
0r	1.c	0e
.	4B-	.
.	4A	.
=28	=28	=28
0C	2G	0e
.	2.A	.
.	4B-	.
.	[2c	.
=29	=29	=29
1C	2c]	0e
.	2A	.
1C	1G	.
=30	=30	=30
0FF	0F	1f
.	.	1a
=31	=31	=31
1C	1E	2g
.	.	2f
1D	1F	[1f
=32	=32	=32
1BB-	0G	1f]
1C	.	1e
=33	=33	=33
1.D	[0F	1.f
4C	.	4e
4BB-	.	4d
=34	=34	=34
2AA	0F]	2c
2.BB-	.	2.d
4AA	.	4c
2FF	.	2A
=35	=35	=35
2.AA	0E	2.c
4BB-	.	4B-
1C	.	1G
=36	=36	=36
1FF	0F	1r
1r	.	1F
=37	=37	=37
1F	0r	1A
1G	.	1B-
=38	=38	=38
2A	1F	0c
1F	.	.
.	1A	.
2A	.	.
=39	=39	=39
1G	1B-	1d
2E	[1c	2c
[2C	.	[2e
=40	=40	=40
4C]	1c]	2e]
4BB-	.	.
2AA	.	4d
.	.	4c
1GG	1d	2.Bni
.	.	4A
=41	=41	=41
2r	1c	1c
2C	.	.
2.D	[1f	2B-
.	.	[2A
4E	.	.
=42	=42	=42
1F	1f]	2A]
.	.	2F
1C	1e	1G
!!LO:REP:start=1
=43	=43	=43
*>B1	*>B1	*>B1
2D	1f	1F
2.BB-	.	.
.	[1d	2r
4C	.	.
[2D	.	[2f
=44	=44	=44
2D]	2d]	2f]
2E	2c	2g
2F	[1c	2a
2E	.	[2g
=45	=45	=45
1C	2c]	2g]
.	2A	4f
.	.	4e
1G	1Bni	1d
!!LO:REP:end=1
!!LO:REP:start=2
=46:|!	=46:|!	=46:|!
*>B2	*>B2	*>B2
2D	1f	1F
2.BB-	.	.
.	[1d	2r
4C	.	.
[2D	.	[2f
!!LO:REP:open=2
=47	=47	=47
2D]	2d]	2f]
2E	2c	2g
2F	[1c	2a
2E	.	[2g
=48	=48	=48
1C	2c]	2g]
.	2A	4f
.	.	4e
1G	1Bni	1d
=49	=49	=49
0Cl	0cl	0cl
==	==	==
*-	*-	*-
!!!RDF**kern: l=long note in original notation
!!!RDF**kern: i=editorial accidental
!!!ENC:	Chris Gage 03-28-2015
!!!END:	2015/04/13/
!!!EED:	Jesse Rodin
!!!EEV:	2015/05/10/
!!!ONB:	Translated from MusicXML and edited on 2015/05/10/ by Craig Sapp
!!muse2ps: C^@{COM}^i2I150v95,95,150Q16c80
